resources/haticons/SVG/windows8.svg

<!-- Generated by IcoMoon.io -->
<svg version="1.1" xmlns="http://www.w3.org/2000/svg" width="24" height="24" viewBox="0 0 24 24">
<title>windows8</title>
<path d="M0.008 12l-0.008-7.314 9-1.222v8.536zM10.5 3.246l11.997-1.746v10.5h-11.997zM22.5 13.5l-0.003 10.5-11.997-1.688v-8.812zM9 22.121l-8.993-1.233-0-7.388h8.993z"></path>
</svg>

<svg xmlns="http://www.w3.org/2000/svg" width="24" height="24"><path d="M.008 12L0 4.686l9-1.222V12zM10.5 3.246L22.497 1.5V12H10.5zm12 10.254L22.497 24 10.5 22.312V13.5zM9 22.121L.007 20.888V13.5H9z"/></svg>
